packages/flutter/assets/icons/received.svg

<?xml version="1.0" encoding="UTF-8"?>
<svg width="24px" height="24px" viewBox="0 0 24 24" version="1.1" xmlns="http://www.w3.org/2000/svg" xmlns:xlink="http://www.w3.org/1999/xlink">
    <title>received</title>
    <g id="received" stroke="none" stroke-width="1" fill="none" fill-rule="evenodd">
        <path d="M18.9375,4.5 C19.391006,4.5 19.6102666,5.05525219 19.2791153,5.36510134 L18.9672451,5.656 L22.25,5.65625 C22.5650589,5.65625 22.7289081,6.01318193 22.5550441,6.25023742 L22.5044345,6.30672794 L18.2412766,10.2442279 C18.1893167,10.2922186 18.1252258,10.3242045 18.0566415,10.3371979 L17.9868421,10.34375 L15.1622451,10.343 L15.1622451,12.53 L17.8470656,12.5302885 L21.9909978,8.57256211 C22.1407708,8.42951916 22.3781449,8.43497489 22.5211879,8.58474782 C22.6463505,8.71579914 22.6578188,8.91392016 22.558394,9.05723035 L22.5090022,9.11493789 L18.2563736,13.1764764 C18.2040487,13.22645 18.1387888,13.2598575 18.0687293,13.2734379 L17.9973714,13.2802885 L15.1622451,13.28 L15.1622451,15.626 L17.8418279,15.6269231 L21.9977005,11.8475654 C22.1509234,11.7082242 22.3880934,11.7194776 22.5274346,11.8727005 C22.6493581,12.0067705 22.6559827,12.2051126 22.5530864,12.345951 L22.5022995,12.4024346 L18.2391416,16.2793577 C18.1873672,16.3264414 18.1238224,16.3577801 18.055921,16.3705067 L17.9868421,16.3769231 L15.1622451,16.376 L15.1622451,18.501 L17.8418279,18.5019231 L21.9977005,14.7225654 C22.1509234,14.5832242 22.3880934,14.5944776 22.5274346,14.7477005 C22.6493581,14.8817705 22.6559827,15.0801126 22.5530864,15.220951 L22.5022995,15.2774346 L18.2391416,19.1543577 C18.1873672,19.2014414 18.1238224,19.2327801 18.055921,19.2455067 L17.9868421,19.2519231 L15.1622451,19.251 L15.1625,20 C15.1625,20.2761424 14.9386424,20.5 14.6625,20.5 L6.25,20.5 C5.97385763,20.5 5.75,20.2761424 5.75,20 L5.7492451,19.255 L2,19.2550481 C1.79289322,19.2550481 1.625,19.0871549 1.625,18.8800481 C1.625,18.6988296 1.75354325,18.5476341 1.92442442,18.5126667 L2,18.5050481 L5.7492451,18.505 L5.7492451,16.38 L2,16.3800481 C1.79289322,16.3800481 1.625,16.2121549 1.625,16.0050481 C1.625,15.8238296 1.75354325,15.6726341 1.92442442,15.6376667 L2,15.6300481 L5.7492451,15.63 L5.7492451,13.283 L2,13.2834135 C1.79289322,13.2834135 1.625,13.1155202 1.625,12.9084135 C1.625,12.727195 1.75354325,12.5759995 1.92442442,12.5410321 L2,12.5334135 L5.7492451,12.533 L5.7492451,10.343 L2,10.34375 C1.68494113,10.34375 1.52109188,9.98681807 1.69495589,9.74976258 L1.74556552,9.69327206 L6.00872341,5.75577206 C6.06068328,5.70778135 6.12477416,5.67579555 6.19335855,5.66280206 L6.26315789,5.65625 L9.0912451,5.656 L10.1833847,4.63489866 C10.2760195,4.54822279 10.3981382,4.5 10.525,4.5 L18.9375,4.5 Z M17.6713076,5.5 L10.7224424,5.5 L6.75,9.21690513 L6.75,19.5 L14.1625,19.5 L14.1625,9 C14.1625,8.8616263 14.2198439,8.7294398 14.3208847,8.63489866 L17.6713076,5.5 Z M10.4875,10.9375 C10.7636424,10.9375 10.9875,11.1613576 10.9875,11.4375 L10.9875,11.4375 L10.9877944,11.567769 C11.7964724,11.7850963 12.4875,12.4946324 12.4875,13.25 C12.4875,13.5261424 12.2636424,13.75 11.9875,13.75 C11.7113576,13.75 11.4875,13.5261424 11.4875,13.25 L11.4875,13.25 L11.4785763,13.1755538 C11.4081893,12.8711868 10.9335189,12.5 10.4875,12.5 C9.97326223,12.5 9.4875,12.8945895 9.4875,13.25 C9.4875,13.6005651 9.98245804,14 10.4875,14 C11.478665,14 12.4875,14.8442843 12.4875,15.75 C12.4875,16.5003031 11.7891276,17.2105133 10.9879952,17.4304377 C10.9875,17.7136424 10.7636424,17.9375 10.4875,17.9375 C10.2113576,17.9375 9.9875,17.7136424 9.9875,17.4375 L9.9875,17.4375 C9.18224674,17.2174159 8.4875,16.5156431 8.4875,15.75 C8.4875,15.4738576 8.71135763,15.25 8.9875,15.25 C9.26364237,15.25 9.4875,15.4738576 9.4875,15.75 L9.4875,15.75 L9.49647528,15.8258593 C9.56725818,16.1349368 10.0443897,16.5 10.4875,16.5 C10.9572224,16.5 11.4875,16.0576512 11.4875,15.75 C11.4875,15.4398966 10.9618677,15 10.4875,15 L10.4875,15 L10.3427038,14.9946652 C9.38019999,14.9239902 8.4875,14.1602302 8.4875,13.25 C8.4875,12.4495013 9.16632416,11.7658858 9.98756842,11.5619242 L9.9875,11.4375 C9.9875,11.1613576 10.2113576,10.9375 10.4875,10.9375 Z M21.2912887,6.40625 L18.1652451,6.406 L15.1625,9.21690513 L15.1622451,9.593 L17.8401608,9.59375 L21.2912887,6.40625 Z M8.2892451,6.406 L6.40983917,6.40625 L2.95871135,9.59375 L5.7492451,9.593 L5.75,9 C5.75,8.8616263 5.80734386,8.7294398 5.90838471,8.63489866 L8.2892451,6.406 Z" id="Path-6" fill="#303846"></path>
    </g>
</svg>

<svg xmlns="http://www.w3.org/2000/svg" width="24" height="24" viewBox="0 0 24 24"><path fill-rule="evenodd" d="M18.938 4.5a.5.5 0 0 1 .341.865l-.312.291h3.283c.315 0 .479.357.305.594l-.05.057-4.264 3.937a.375.375 0 0 1-.184.093l-.07.007-2.825-.001v2.187h2.685l4.144-3.957a.375.375 0 0 1 .567.484l-.049.058-4.253 4.061a.375.375 0 0 1-.187.097l-.072.007h-2.835v2.346h2.68l4.156-3.778a.375.375 0 0 1 .555.498l-.05.056-4.264 3.877a.375.375 0 0 1-.183.092l-.07.006-2.824-.001v2.125h2.68l4.156-3.778a.375.375 0 0 1 .555.498l-.05.056-4.264 3.877a.375.375 0 0 1-.183.092l-.07.006-2.824-.001V20a.5.5 0 0 1-.5.5H6.25a.5.5 0 0 1-.5-.5v-.745H2a.375.375 0 0 1-.076-.742L2 18.505h3.75V16.38H2a.375.375 0 0 1-.076-.742L2 15.63h3.75v-2.347H2a.375.375 0 0 1-.076-.742L2 12.533h3.75v-2.19H2a.375.375 0 0 1-.305-.593l.05-.057L6.01 5.756a.375.375 0 0 1 .184-.093l.07-.007h2.828l1.092-1.021a.5.5 0 0 1 .342-.135h8.412zm-1.267 1h-6.949L6.75 9.217V19.5h7.412V9a.5.5 0 0 1 .159-.365L17.67 5.5zm-7.183 5.438a.5.5 0 0 1 .5.5v.13c.808.217 1.5.927 1.5 1.682a.5.5 0 1 1-1 0l-.01-.074c-.07-.305-.544-.676-.99-.676-.515 0-1 .395-1 .75 0 .35.494.75 1 .75.99 0 2 .844 2 1.75 0 .75-.699 1.46-1.5 1.68a.5.5 0 1 1-1 .007c-.806-.22-1.5-.921-1.5-1.687a.5.5 0 1 1 1 0l.008.076c.071.309.548.674.992.674.47 0 1-.442 1-.75 0-.31-.526-.75-1-.75l-.145-.005c-.963-.071-1.855-.835-1.855-1.745 0-.8.678-1.484 1.5-1.688v-.124a.5.5 0 0 1 .5-.5zM21.29 6.405h-3.126l-3.002 2.81v.377h2.677l3.451-3.187zm-13.002 0H6.41L2.96 9.594l2.79-.001V9a.5.5 0 0 1 .158-.365L8.29 6.406z"/></svg>
